X: 177
M: 4/4
L: 1/8
K: Eb
(F3 E) E2 B,2 | E3 F (AG) F E | G2 B2 e2 d> e | c2 B2
(G>A B) G | (F3 E) E3 B | e2 d2 c2 z (d/ e/) | d2 c2 B2 z |
=B | c3 G G2 =B2 | (c3 d) He2 e2 | E3 F (AG) (F E) |


